X: 811
T: Lord Kinaird's Reel
R: reel
B: Robert Bremner "A Collection of Scots Reels or Country Dances" 1757 p.81 #1
S: http://imslp.org/wiki/A_Collection_of_Scots_Reels_or_Country_Dances_(Bremner,_Robert)
Z: 2013 John Chambers <jc:trillian.mit.edu>
M: C
L: 1/8
K: D
% - - - - - - - - - - - - - - - - - - - - - - - - -
V: 1
B/(c/ |\
d2)d2 d(FTED) | d2A=c TB2AB/^c/ |\
dABF AFdF | E/E/E FA TB2A :|
|: (g |\
f)dad Tfeeg | fdad Tf2e(g |\
f)dad eBdF | E/E/E FA TB2A :|
% - - - - - - - - - - - - - - - - - - - - - - - - -
V: 2 clef=bass middle=d
z |\
d2d2 d2d2 | d2d2 d2d2 |\
d2d2 d2d2 | A2A2 D2D :|\
|: z |
d2d2 e2e2 | d2d2 d2d2 |\
d2d2 d2d2 | A2A2 D2D :|
% - - - - - - - - - - - - - - - - - - - - - - - - -

%%sep 1 1 500
%%sep 1 1 500
